src/symbolic/mimetypes/x-office-drawing-symbolic.svg

<svg xmlns="http://www.w3.org/2000/svg" width="16" height="16" version="1.1">
 <path style="fill:#444444" d="M 3,1 C 1,1 1,3 1,3 V 13 C 1,15 3,15 3,15 H 13 C 15,15 15,13 15,13 V 3 C 15,1 13,1 13,1 Z M 5.5,4 C 6.3284,4 7,4.6716 7,5.5 7,6.3284 6.3284,7 5.5,7 4.6716,7 4,6.3284 4,5.5 4,4.6716 4.6716,4 5.5,4 Z M 8.5,9 C 8.95,9 9.3303,9.2107 9.5703,9.4707 9.8103,9.7407 10.31,10.74 10.42,10.85 10.52,10.96 10.57,11 10.75,11 H 12 V 12 H 10.75 C 10.3,12 9.9197,11.789 9.6797,11.529 9.4397,11.259 8.9401,10.26 8.8301,10.15 8.7301,10.04 8.68,10 8.5,10 8.32,10 8.2699,10.04 8.1699,10.15 8.0599,10.26 7.5603,11.259 7.3203,11.529 7.0803,11.789 6.7,12 6.25,12 H 4 V 11 H 6.25 C 6.43,11 6.4801,10.96 6.5801,10.85 6.6901,10.74 7.1897,9.7407 7.4297,9.4707 7.6697,9.2107 8.05,9 8.5,9 Z"/>
</svg>

<svg xmlns="http://www.w3.org/2000/svg" width="16" height="16"><path d="M3 1C1 1 1 3 1 3v10c0 2 2 2 2 2h10c2 0 2-2 2-2V3c0-2-2-2-2-2zm2.5 3a1.5 1.5 0 1 1 0 3 1.5 1.5 0 0 1 0-3zm3 5c.45 0 .83.21 1.07.47.24.27.74 1.27.85 1.38.1.11.15.15.33.15H12v1h-1.25c-.45 0-.83-.211-1.07-.471-.24-.27-.74-1.269-.85-1.379-.1-.11-.15-.15-.33-.15-.18 0-.23.04-.33.15-.11.11-.61 1.109-.85 1.379-.24.26-.62.471-1.07.471H4v-1h2.25c.18 0 .23-.04.33-.15.11-.11.61-1.11.85-1.38.24-.26.62-.47 1.07-.47z" fill="#444"/></svg>
